X:1
T:Title
%%score { ( 1 4 ) | ( 2 3 ) }
L:1/8
M:4/4
K:Ab
V:1 treble nm="Grand Piano"
V:4 treble 
V:2 bass 
V:3 bass 
V:1
 z4 z2[Q:1/4=112] [Ec][DB] | [CA]2 [CE]2 [A,C]2 [B,D]2 | [CE]2 [CE]4 [CF][CE] | %3
 [_C=D]2 [=CE]2 [CB]2 [CA]2 |[M:3/4] [DG]6 |[M:1/4] dc |[M:4/4] B2 E2 D2 E2 | F2 F4 GA | %8
 B2 =A2 B2 _c2 |[M:3/4] [Ec]6 |[M:1/4] [Ec][DB] |[M:4/4] [CA]2 [CE]2 [A,C]2 [B,D]2 | %12
 [CE]2 [CE]4 E=E | F2 G2 A2 [FB]2 |[M:3/4] [=Ec]6 |[M:1/4] c>c |[M:4/4] d2 [Fd]>[Fd] [Fd]2 c>B | %17
 e2 [Ae]>[Ae] [Ae]2 [Af]2 | [Ae]2 [Af]2 [Ae]2 [Af]2 |[M:5/4] e2- e2- e4- e z |[M:4/4] c4 c4 | %21
 [Ec]>[=D_c] [E=c]>[Fd] [Ec]2 [CA]2 | [CE]4[K:bass] [CF]4 | [DG]2 [C_G]2 [D=G]4 | G2 z2 c4 | %25
 [Gd]>[Ge] [Gd]>[Gc] [GB]2 [B,EG]2 | E2 z2 B4 | [Ec]2 f2 e2 d2 | A2 z2 c4 | %29
 [Ec]>[=D_c] [E=c]>[Fd] [Ec]2 [EA]2 | B4 c4 | [Fd]6 =d2 | e2 B2 c>[K:bass]E, F,>[K:treble][Af] | %33
 e2 B2 c>[K:bass]E, F,>[K:treble][Af] | %34
[M:23/16] [Ae]/-[Ae]/-[Ae]/-[Ae]/-[Ae]/-[Ae]-<[Ae]Af/-f/-f-<f[Ge]/-[Ge]/-[Ge]-<[Ge] | %35
[M:9/8] [CEA]8- [CEA] |] %36
V:2
 z4 z2 [A,,A,][A,,A,] | [A,,A,]2 [A,,A,]2 [A,,E,]2 [A,,E,]2 | [A,,A,]2 [A,,A,]4 [A,,A,][A,,A,] | %3
 [A,,A,]2 [A,,A,]2 [A,,E,]2 [A,,E,]2 |[M:3/4] [B,,E,]6 |[M:1/4] [E,B,E][E,A,E] | %6
[M:4/4] [E,G,D]2 [E,G,D]2 [E,G,]2 [E,G,D]2 | [E,G,D]2 [E,G,D]4 [E,B,D][E,A,D] | %8
 [E,G,D]2 [E,_G,C]2 [E,=G,D]2 [E,G,=D]2 |[M:3/4] [A,,A,]6 |[M:1/4] [A,,A,][A,,A,] | %11
[M:4/4] [A,,A,]2 [A,,A,]2 [A,,E,]2 [A,,E,]2 | [A,,A,]2 [A,,A,]4 [A,C][G,B,C] | %13
 [F,A,C]2 [=E,B,C]2 [F,A,C]2 [D,F,]2 |[M:3/4] [C,G,]6 |[M:1/4] C>C |[M:4/4] D6 z2 | E6 z2 | %18
 [E,C]2 [=D,_C]2 [E,=C]2 [D,_C]2 |[M:5/4] C2 z2 z2 z4 |[M:4/4] A,2 z2 A,2 z2 | %21
 [A,,A,]>[A,,A,] [A,,A,]>[A,,A,] [A,,A,]2 [A,,E,]2 | [A,,E,]2 z2 [A,,E,]2 z2 | %23
 [B,,E,]2 [=A,,E,]2 [B,,E,]4 | B,2 z2 =A,2 z2 | [E,B,]>[E,B,] [E,B,]>[E,E] [E,E]2 D,2 | %26
 z4 [E,E]2 z2 | z2[K:treble] d2 c2 B2 | A,2 z2 A,2 z2 | %29
 [A,,A,]>[A,,A,] [A,,A,]>[A,,A,] [A,,A,]2 [C,A,]2 | A,2 z2 =A,2 z2 | %31
 [B,,B,]2 B,>B, B,2[K:treble] [A,B,F]2 | [G,B,E]2[K:bass] [G,B,E]2 [A,E]2 z z/ [D,D]/ | %33
 [A,CA]2 [G,E]2 [A,EA]2 z z/[K:bass] [D,D]/ | %34
[M:23/16] [E,C]/-[E,C]/-[E,C]/-[E,C]/-[E,C]/-[E,C]-<[E,C][F,=D][B,,DA]/-[B,,DA]/-[B,,DA]-<[B,,DA][E,_D]/-[E,D]/-[E,D]-<[E,D] | %35
[M:9/8] A,,8- A,, |] %36
V:3
 x8 | x8 | x8 | x8 |[M:3/4] x6 |[M:1/4] x2 |[M:4/4] x8 | x8 | x8 |[M:3/4] x6 |[M:1/4] x2 | %11
[M:4/4] x8 | x8 | x8 |[M:3/4] x6 |[M:1/4] x2 |[M:4/4] z2 B,,>B,, B,,2 C>B, | z2 C,>C, C,2 [D,D]2 | %18
 x8 |[M:5/4] E,2- [E,-C][E,-C] [E,-D]3 [E,B,-]2 B, |[M:4/4] A,,2- [A,,E,]2 A,,2- [A,,E,]2 | x8 | %22
 x8 | x8 | E,4 E,4 | x8 | C,2 C,2 G,2- [E,G,]2 | A,8[K:treble] | A,,2- [A,,E,]2 A,,2- [A,,E,]2 | %29
 x8 | D,4 C,4 | x6[K:treble] x2 | x2[K:bass] x6 | x15/2[K:bass] x/ |[M:23/16] x23/2 |[M:9/8] x9 |] %36
V:4
 x8 | x8 | x8 | x8 |[M:3/4] x6 |[M:1/4] x2 |[M:4/4] x8 | x8 | x8 |[M:3/4] x6 |[M:1/4] x2 | %11
[M:4/4] x8 | x8 | x8 |[M:3/4] x6 |[M:1/4] x2 |[M:4/4] x8 | x8 | x8 |[M:5/4] A2 =AA B3 G3 | %20
[M:4/4] E2 F2 E2 F2 | x8 | z2[K:bass] [A,,E,]2 z2 [A,,E,]2 | x8 | d2- [B,Gd]2 _G2 [=A,G]2 | x8 | %26
 [A,A]2- [A,EA]2 z2 E2 | x8 | c2- [Fc]2 E2 F2 | x8 | F2 [A,F]2 F2 [=A,F]2 | x8 | %32
 x11/2[K:bass] x2[K:treble] x/ | x11/2[K:bass] x2[K:treble] x/ |[M:23/16] x23/2 |[M:9/8] x9 |] %36

